src/components/Icon/icons/edit.svg

<svg xmlns="http://www.w3.org/2000/svg" width="100%" height="100%" viewBox="0 0 19 19" fill="none">
  <path d="M4.24026 5.34814H3.29909C2.79986 5.34814 2.32108 5.54646 1.96807 5.89947C1.61507 6.25248 1.41675 6.73126 1.41675 7.23049V15.701C1.41675 16.2002 1.61507 16.679 1.96807 17.032C2.32108 17.385 2.79986 17.5834 3.29909 17.5834H11.7696C12.2689 17.5834 12.7476 17.385 13.1006 17.032C13.4536 16.679 13.652 16.2002 13.652 15.701V14.7599" stroke="currentColor" stroke-width="1.5" stroke-linecap="round" stroke-linejoin="round"/>
  <path d="M12.7108 3.46594L15.5343 6.28945M16.8378 4.95769C17.2085 4.58702 17.4167 4.08427 17.4167 3.56005C17.4167 3.03584 17.2085 2.53309 16.8378 2.16242C16.4671 1.79174 15.9644 1.5835 15.4401 1.5835C14.9159 1.5835 14.4132 1.79174 14.0425 2.16242L6.12256 10.0541V12.8776H8.94607L16.8378 4.95769Z" stroke="currentColor" stroke-width="1.5" stroke-linecap="round" stroke-linejoin="round"/>
</svg>

<svg xmlns="http://www.w3.org/2000/svg" fill="none" viewBox="0 0 19 19"><path stroke="currentColor" stroke-linecap="round" stroke-linejoin="round" stroke-width="1.5" d="M4.24 5.348H3.3A1.88 1.88 0 0 0 1.416 7.23v8.471a1.88 1.88 0 0 0 1.882 1.882h8.47a1.88 1.88 0 0 0 1.883-1.882v-.941"/><path stroke="currentColor" stroke-linecap="round" stroke-linejoin="round" stroke-width="1.5" d="m12.71 3.466 2.824 2.823m1.304-1.331a1.976 1.976 0 1 0-2.796-2.796l-7.92 7.892v2.824h2.824z"/></svg>
